SVG/Radicacion.svg

<?xml version="1.0" encoding="UTF-8" standalone="no"?>
<svg
   width="71.184364"
   height="69.259247"
   viewBox="0 0 71.184364 69.259247"
   fill="none"
   version="1.1"
   id="svg3"
   sodipodi:docname="Radicacion.svg"
   inkscape:version="1.3.2 (091e20e, 2023-11-25, custom)"
   xmlns:inkscape="http://www.inkscape.org/namespaces/inkscape"
   xmlns:sodipodi="http://sodipodi.sourceforge.net/DTD/sodipodi-0.dtd"
   xmlns="http://www.w3.org/2000/svg"
   xmlns:svg="http://www.w3.org/2000/svg">
  <sodipodi:namedview
     id="namedview3"
     pagecolor="#ffffff"
     bordercolor="#000000"
     borderopacity="0.25"
     inkscape:showpageshadow="2"
     inkscape:pageopacity="0.0"
     inkscape:pagecheckerboard="0"
     inkscape:deskcolor="#d1d1d1"
     inkscape:zoom="5.5968169"
     inkscape:cx="15.812559"
     inkscape:cy="56.013982"
     inkscape:window-width="1920"
     inkscape:window-height="1017"
     inkscape:window-x="-8"
     inkscape:window-y="-8"
     inkscape:window-maximized="1"
     inkscape:current-layer="svg3" />
  <g
     clip-path="url(#clip0_18_4071)"
     id="g3"
     transform="translate(3.9308057,0.17867299)">
    <path
       d="M 60.2682,49.8236 31.9657,0.797816 C 31.6765,0.299181 31.1479,0 30.5795,0 30.011,0 29.4825,0.309154 29.1933,0.797816 L 0.890734,49.8236 c -0.289208,0.4987 -0.289208,1.107 0,1.5957 0.289206,0.4986 0.817766,0.7978 1.386206,0.7978 H 58.882 c 0.5685,0 1.097,-0.3092 1.3862,-0.7978 0.2892,-0.4987 0.2892,-1.107 0,-1.5957 z"
       fill="#000000"
       id="path1" />
    <path
       d="M 5.05859,49.0186 30.5887,4.99023 56.1188,49.0186 Z"
       fill="#f6bd16"
       id="path2" />
    <path
       d="m 33.2367,33.9859 c 0,1.4706 -1.1921,2.6627 -2.6627,2.6627 -1.4706,0 -2.6627,-1.1921 -2.6627,-2.6627 0,-1.4706 1.1921,-2.6627 2.6627,-2.6627 1.4706,0 2.6627,1.1921 2.6627,2.6627 z m 4.0091,-11.5484 -4.6673,8.0879 c 0.0798,0.0498 0.1596,0.0897 0.2394,0.1496 0.1097,0.0698 0.2094,0.1495 0.3091,0.2293 0.0998,0.0798 0.1895,0.1696 0.2892,0.2593 0.0898,0.0898 0.1796,0.1895 0.2593,0.2793 0.0798,0.0997 0.1596,0.1994 0.2294,0.3091 0.0698,0.1097 0.1396,0.2194 0.1995,0.3291 0.0598,0.1097 0.1196,0.2294 0.1695,0.3491 0.0499,0.1196 0.0997,0.2393 0.1396,0.3689 0.0399,0.1297 0.0698,0.2494 0.0997,0.379 0.03,0.1296 0.0499,0.2593 0.0599,0.3989 0.0099,0.1297 0.0199,0.2693 0.0199,0.4089 h 9.3345 c -0.02,-4.9066 -2.4334,-9.0951 -6.6817,-11.5484 z m -13.3335,0 c -4.2484,2.4533 -6.6618,6.6418 -6.6618,11.5484 h 9.3344 c 0,-0.1396 0.01,-0.2792 0.02,-0.4089 0.01,-0.1296 0.0399,-0.2693 0.0598,-0.3989 0.0299,-0.1296 0.0599,-0.2593 0.0997,-0.379 0.0399,-0.1296 0.0798,-0.2493 0.1397,-0.3689 0.0498,-0.1197 0.1097,-0.2394 0.1695,-0.3491 0.0598,-0.1097 0.1296,-0.2194 0.1995,-0.3291 0.0698,-0.1097 0.1495,-0.2094 0.2293,-0.3091 0.0798,-0.0998 0.1696,-0.1895 0.2593,-0.2793 0.0898,-0.0897 0.1895,-0.1795 0.2892,-0.2593 0.0998,-0.0798 0.1995,-0.1595 0.3092,-0.2293 0.0798,-0.0499 0.1595,-0.0998 0.2393,-0.1496 z m 4.6672,15.0089 -4.6672,8.0879 c 4.2483,2.4533 9.0851,2.4533 13.3335,0 l -4.6673,-8.0879 c -0.0299,0.02 -0.0598,0.0399 -0.0897,0.0599 -0.1097,0.0598 -0.2294,0.1196 -0.3491,0.1695 -0.1196,0.0499 -0.2393,0.0997 -0.369,0.1396 -0.1296,0.0399 -0.2493,0.0698 -0.3789,0.0997 -0.1297,0.03 -0.2593,0.0499 -0.3989,0.0599 -0.1297,0.0099 -0.2693,0.0199 -0.4089,0.0199 -0.1396,0 -0.2693,-0.01 -0.4089,-0.0199 -0.1296,-0.01 -0.2692,-0.0299 -0.3989,-0.0599 -0.1296,-0.0299 -0.2593,-0.0598 -0.379,-0.0997 -0.1296,-0.0399 -0.2493,-0.0798 -0.3689,-0.1396 -0.1197,-0.0499 -0.2394,-0.1097 -0.3491,-0.1695 -0.0399,-0.02 -0.0698,-0.0399 -0.0997,-0.0599 z"
       fill="#000000"
       id="path3" />
  </g>
  <defs
     id="defs3">
    <rect
       x="3.7521329"
       y="53.423225"
       width="80.58152"
       height="19.296682"
       id="rect4" />
    <clipPath
       id="clip0_18_4071">
      <rect
         width="59.836201"
         height="52.356701"
         fill="#ffffff"
         transform="translate(0.671875)"
         id="rect3"
         x="0"
         y="0" />
    </clipPath>
  </defs>
  <text
     xml:space="preserve"
     id="text3"
     style="font-size:5.75499px;line-height:4.89401px;font-family:Arial;-inkscape-font-specification:Arial;white-space:pre;shape-inside:url(#rect4);display:inline;fill:#000000;stroke-width:1.3115;stroke-miterlimit:3.6;stroke-dasharray:5.246, 1.3115"
     transform="matrix(1.3280097,0,0,2.492356,-4.5105182,-78.696268)"><tspan
       x="3.7519531"
       y="57.457797"
       id="tspan2">Peligro de Radiacion</tspan></text>
</svg>

<svg width="61" height="53" viewBox="0 0 61 53" fill="none" xmlns="http://www.w3.org/2000/svg">
<g clip-path="url(#clip0_18_4071)">
<path d="M60.2682 49.8236L31.9657 0.797816C31.6765 0.299181 31.1479 0 30.5795 0C30.011 0 29.4825 0.309154 29.1933 0.797816L0.890734 49.8236C0.601526 50.3223 0.601526 50.9306 0.890734 51.4193C1.17994 51.9179 1.7085 52.2171 2.27694 52.2171H58.882C59.4505 52.2171 59.979 51.9079 60.2682 51.4193C60.5574 50.9206 60.5574 50.3123 60.2682 49.8236Z" fill="black"/>
<path d="M5.05859 49.0186L30.5887 4.99023L56.1188 49.0186H5.05859Z" fill="#F6BD16"/>
<path d="M33.2367 33.9859C33.2367 35.4565 32.0446 36.6486 30.574 36.6486C29.1034 36.6486 27.9113 35.4565 27.9113 33.9859C27.9113 32.5153 29.1034 31.3232 30.574 31.3232C32.0446 31.3232 33.2367 32.5153 33.2367 33.9859ZM37.2458 22.4375L32.5785 30.5254C32.6583 30.5752 32.7381 30.6151 32.8179 30.675C32.9276 30.7448 33.0273 30.8245 33.127 30.9043C33.2268 30.9841 33.3165 31.0739 33.4162 31.1636C33.506 31.2534 33.5958 31.3531 33.6755 31.4429C33.7553 31.5426 33.8351 31.6423 33.9049 31.752C33.9747 31.8617 34.0445 31.9714 34.1044 32.0811C34.1642 32.1908 34.224 32.3105 34.2739 32.4302C34.3238 32.5498 34.3736 32.6695 34.4135 32.7991C34.4534 32.9288 34.4833 33.0485 34.5132 33.1781C34.5432 33.3077 34.5631 33.4374 34.5731 33.577C34.583 33.7067 34.593 33.8463 34.593 33.9859H43.9275C43.9075 29.0793 41.4941 24.8908 37.2458 22.4375ZM23.9123 22.4375C19.6639 24.8908 17.2505 29.0793 17.2505 33.9859H26.5849C26.5849 33.8463 26.5949 33.7067 26.6049 33.577C26.6149 33.4474 26.6448 33.3077 26.6647 33.1781C26.6946 33.0485 26.7246 32.9188 26.7644 32.7991C26.8043 32.6695 26.8442 32.5498 26.9041 32.4302C26.9539 32.3105 27.0138 32.1908 27.0736 32.0811C27.1334 31.9714 27.2032 31.8617 27.2731 31.752C27.3429 31.6423 27.4226 31.5426 27.5024 31.4429C27.5822 31.3431 27.672 31.2534 27.7617 31.1636C27.8515 31.0739 27.9512 30.9841 28.0509 30.9043C28.1507 30.8245 28.2504 30.7448 28.3601 30.675C28.4399 30.6251 28.5196 30.5752 28.5994 30.5254L23.9123 22.4375ZM28.5795 37.4464L23.9123 45.5343C28.1606 47.9876 32.9974 47.9876 37.2458 45.5343L32.5785 37.4464C32.5486 37.4664 32.5187 37.4863 32.4888 37.5063C32.3791 37.5661 32.2594 37.6259 32.1397 37.6758C32.0201 37.7257 31.9004 37.7755 31.7707 37.8154C31.6411 37.8553 31.5214 37.8852 31.3918 37.9151C31.2621 37.9451 31.1325 37.965 30.9929 37.975C30.8632 37.9849 30.7236 37.9949 30.584 37.9949C30.4444 37.9949 30.3147 37.9849 30.1751 37.975C30.0455 37.965 29.9059 37.9451 29.7762 37.9151C29.6466 37.8852 29.5169 37.8553 29.3972 37.8154C29.2676 37.7755 29.1479 37.7356 29.0283 37.6758C28.9086 37.6259 28.7889 37.5661 28.6792 37.5063C28.6393 37.4863 28.6094 37.4664 28.5795 37.4464Z" fill="black"/>
</g>
<defs>
<clipPath id="clip0_18_4071">
<rect width="59.8362" height="52.3567" fill="white" transform="translate(0.671875)"/>
</clipPath>
</defs>
</svg>
